X:5
T:Snade Mill
C:Andy Hornby 1998
Q:1/4=160
I:abc2nwc
M:4/4
L:1/8
K:C
EA cA|B3c|EA cA|BA ^GA|
EA cA|B3c|dc BA|^GA Bc:|
|:Ee ef|fe ed|dc cB|cA EA|dc BA|
^GB- Bc|[1dc BA|^GA BG:|[2dc B^G|A4|]
%%textfont Timesbold 25
%%center  SLIP JIGS
%%vskip 2cm
